X:1
T:Praise the Giver of All
T:Praise the Giver of All
T:William Fiske Sherwin
T:Frances Jane (Fanny) Crosby, 1869
T:Public Domain Courtesy of the Cyber Hymnal™
C:William Fiske Sherwin
Z:Public Domain
Z:Courtesy of the Cyber Hymnal™
%%score ( 1 2 ) ( 3 4 )
L:1/8
Q:1/4=85
M:6/8
K:C
V:1 treble 
V:2 treble 
V:3 bass 
V:4 bass 
V:1
 [EG]/[DF]/ | [CE][DF][EG] [Ec][DB][Ec] | [Fd][FA][FA] [FA]2 [^Fc] | [GB][FA][EG] [DF][CE][DF] | %4
w: 1.~Let us|min- gle our voic- es in|chor- us to- day; The|earth is re- joic- ing, all|
w: 2.~There is|joy in the sun- beam that|spark- les so bright And|calls the young bloss- oms to|
w: 3.~Let us|join the glad mu- sic and|joy- ful- ly raise, In|pur- est de- vo- tion, our|
 [FA][EG][EG] [EG]2 | [EG]/[DF]/ | [CE][DF][EG] | [Ec][DB][Ec] | [Fd][FA][FA] [FA]2 [Ac] | %9
w: na- ture is gay,|And the|stream in the|vall- ey goes|laugh- ing a- long; How|
w: wel- come the light;|And the|bird in the|green- wood is|sing- ing with glee, As|
w: ju- bi- lant praise;|We are|grate- ful to|God for this|beau- ti- ful day: We’ll|
 [GB][^FA]G [A=f][Ge][=Fd] | [Ec]3- [Ec]2 z ||"^Refrain" [Ge]2 [Ge] [Ge]2 [Fd] | %12
w: hap- py its beau- ti- ful|song. *||
w: cheer- ful and hap- py as|we. *|Praise the Lord, the|
w: sing the bright mo- ments a-|way. *||
 [Ec][FA][FA] [FA]3 | [^Fd]2 [Fd] [Fd]2 [Ac] | [GB][Ac][^FA] G2 | [EG]/[DF]/ | [CE][DF][EG] | %17
w: |||||
w: giv- er of all,|Praise the Lord, the|giv- er of all;|Let His|child- ren with|
w: |||||
 [Ec][DB][Ec] | [Fd][FA][FA] [FA]2 [Ac] | [GB][^FA]G [A=f][Ge][=Fd] | [Ec]6 |] %21
w: ||||
w: rap- ture His|mer- cy re- call, The|boun- ti- ful giv- er of|all.|
w: ||||
V:2
 x | x6 | x6 | x6 | x5 | x | x3 | x3 | x6 | x2 G x3 | x6 || x6 | x6 | x6 | x3 G2 | x | x3 | x3 | %18
 x6 | x2 G x3 | x6 |] %21
V:3
 [C,G,]/[C,G,]/ | [C,G,][C,G,][C,G,] [C,G,][C,G,][C,G,] | [F,A,][F,C][F,C] [F,C]2 [D,D] | %3
 [G,D][G,B,][G,C] [G,,G,][G,,G,][G,,B,] | [C,C][C,C][C,C] [C,C]2 | [C,G,]/[C,G,]/ | %6
 [C,G,][C,G,][C,G,] | [C,G,][C,G,][C,G,] | [F,A,][F,C][F,C] [F,C]2 [D,D] | %9
 [G,D][G,C][G,B,] [G,B,][G,C]G, | [C,G,]3- [C,G,]2 z || C2 C C2 [G,B,] | A,[F,C][F,C] [F,C]3 | %13
 [D,D]2 [D,A,] [D,A,]2 [D,D] | [D,D][D,D][D,C] [G,,B,]2 | [C,G,]/[C,G,]/ | [C,G,][C,G,][C,G,] | %17
 [C,G,][C,G,][C,G,] | [F,A,][F,C][F,C] [F,C]2 [D,D] | [G,D][G,C][G,B,] [G,B,][G,C]G, | [C,G,]6 |] %21
V:4
 x | x6 | x6 | x6 | x5 | x | x3 | x3 | x6 | x5 G, | x6 || C2 C C2 x | A, x5 | x6 | x5 | x | x3 | %17
 x3 | x6 | x5 G, | x6 |] %21

